X:825
T:Francis John McGovern
O:ireland
R:reel
Z:id:hn-reel-817
M:C|
L:1/8
K:G
BcBA GEDE|G2BG cGBG|BcBA GEDG|EAAG A2GA:|
(3Bcd ed gded|gded BG~G2|(3Bcd ed g2ed|eaag a2ge|
(3Bcd ed gded|gded BG~G2|BcBA GEDG|EAAG A2GA||
This file contains 12 set dances (#1 - #12).
You can find more abc tune files at http://home1.swipnet.se/~w-11382/abc.htm
I've transcribed them as I have learnt them, which does not necessarily mean
that I play them that way nowadays. Many of the tunes include variations and
different versions. If there is a source (S:) or discography (D:) included the
version transcribed might still not be exactly as that source played the tune,
since I might have changed the tune around a bit when I learnt it.
The tunes were learnt from sessions, from friends or from recordings.
When I've included discography, it's often just a reference to what recordings
the tune appears on.
Last updated 27 August 1998.
(c) Copyright 1997-1998 Henrik Norbeck. This file:
- May be distributed freely (with restrictions below).
- May not be used for commercial purposes (such as printing a tune book to sell).
- This file (or parts of it) may not be made available on a web page for
download without permission from me.
- This copyright notice must be kept, except when e-mailing individual tunes.
- May be printed on paper for personal use.
- Questions? E-mail: henrik.norbeck@mailbox.swipnet.se
R:set dance
Z:id:hn-setdance-%X






